X:1
T:The Bird Song
T:The Bird Song
T:Joseph D. Herron
T:Arthur Cleveland Coxe, 1862
T:Public Domain Courtesy of the Cyber Hymnal™
T:Public Domain Courtesy of the Cyber Hymnal™
C:Joseph D. Herron
Z:Public Domain
Z:Courtesy of the Cyber Hymnal™
%%score ( 1 2 ) ( 3 4 )
L:1/8
Q:1/4=83
M:6/8
K:Ab
V:1 treble 
V:2 treble 
V:3 bass 
V:4 bass 
V:1
"^Duet" [CA] | [Ec]>[DB][CA] [FA][FA][DF] | [CA]2 [A,C] [CE]2 [CE] | [DE][DE][DE] [DG][DF][DE] | %4
w: 1.~The|win- ter is o- ver and|gone at last; The|da- ys of sn- ow and|
w: 2.~And|gone are the pla- int- ive|days of Lent; The|week of the cr- oss of|
w: 3.~A|se- pul- cher seal- èd, a|rock its door; But|win- ter is go- ne and|
w: 4.~And|Christ is the so- ng of|ev- ery- thing, For|de- ath is win- ter, and|
 [DB]2 [DG] ([DE]2 [DE]) | [CE][CF][C_G] [DF][DF][DF] | [=DF][DG][DA] [EG]3 | %7
w: rain are past. *|O- ver the fi- elds the|flow- ers ap- pear;|
w: Christ we spent. *|No- w He giv- eth us|jo- y for woe;|
w: comes no more. *|The se- al is brok- en|and now are seen|
w: Christ is spring. *|Fount- ains that war- ble in|pu- rl- ing words,|
 [=EG][EA][EB] [FA][FA][FA] | [FB]2 [F=B] [=Ec]2 [Ac] | [ce][Ac]A [GB]2 [Gc] | %10
w: It is the so- ng- dove’s|voice we hear. The|sing- ing of birds, a|
w: Ga- ther the flow- ers, the|first that blow. The|sing- ing of birds, a|
w: Val- leys and wo- ods and|gar- dens green. The|sing- ing of birds, a|
w: Hark, how they e- cho the|song of birds. The|sing- ing of birds, a|
 [EA]2 [DF] [CA]2 [CE]/>[CE]/ | [DE][DF][DE] [DE]2 (E/F/) | (GAB [CA]2 [CE]) | %13
w: warb- ling band, And the|Sp- ir- it voice, ~ *|~ * * * *|
w: warb- ling band, A- nd|flow- ers are words, ~ *|~ * * * *|
w: warb- ling band, ’M- id|fl- ocks and herds, ~ *|~ * * * *|
w: warb- ling band, And the|pu- rl- ing words, ~ *|~ * * * *|
 [DE][CE][DG] [CA][DB][Ec] | [_Gc][GB][Gc] !fermata![Fd]2 [_Fd] | [Ec][EB]A [Ae][Ac]A | %16
w: ~ ~ ~ ~ The voice|of the song- dove is|heard in our land, The voice|
w: ~ ~ ~ ~ Are wo-|rds the faith- ful may|u- n- der- stand, Are wo-|
w: ~ ~ ~ ~ The song|of all na- ture is|heard in our land, The song|
w: ~ ~ ~ ~ Of bro-|oks and wa- ters are|heard in our land, Of bro-|
 [GB]3 (Bc)[DB] | [CA]3- [CA]2 ||"^Refrain" E | E2 E EEE | C3 E2 [ce] | [df][ce][Bd] [Ac]2 [Bd] | %22
w: of the * song-|dove *|is|heard in our land. *|||
w: rds the * faith-|ful *|may|u- n- der- stand. The|time it is|of the sing- ing, The|
w: of all * na-|ture *|is|heard in our land. *|||
w: oks and * wa-|ters *|are|heard in our land. *|||
 [DB]2 [Ec] [CA]2 [CE]/[CE]/ | [CA-]3 [DA]2 [DG] | ([CA]3 [CA]2) [CE] | [EA][GA][FA] [EA][DA][CA] | %26
w: ||||
w: sing- ing of birds, a|warb- ling band,|And * the|Spir- it’s voice, The voice of|
w: ||||
w: ||||
 [FA][EA][DA] [CA]2 [CE] | [EA]3 [Ec]2 [CE] | [CA]3- [CA]4 |] %29
w: |||
w: the song- dove is heard|in our land,|Is *|
w: |||
w: |||
V:2
 x | x6 | x6 | x6 | x6 | x6 | x6 | x6 | x6 | x2 A x3 | x6 | x5 D | D3 x3 | x6 | x6 | x2 A x A x | %16
 x3 E2 x | x5 || x | x6 | x6 | x6 | x6 | x6 | x6 | x6 | x6 | x6 | x7 |] %29
V:3
 [A,,E,]- | [A,,E,]6 | [A,,E,]6 | [B,,E,]3 B,A,G, | G,2 B, G,3 | [A,,A,]3 [D,A,]3 | %6
 A,2 B, [E,B,]3 | B,2 C [F,C]3 | D2 F, [C,G,]2 [A,E] | [A,E]2 [CE] [E,D]3 | [A,C]2 [D,D] A,2 A, | %11
 [G,B,]3 [E,G,]3 | (B,2 G, [A,,A,]2 A,) | B,3 A,G,A, | [A,,A,]3 !fermata![D,A,]2 [D,A,] | %15
 A,G,A, A,2 [F,C] | [E,D]3 [E,G,]3 | [A,,A,]3- [A,,A,]2 || [E,C] | [E,C]2 [E,C] [E,D][E,F,][E,G,] | %20
 A,3 [A,,C]3 | [E,G,]3 [E,A,]3 | [E,G,][E,G,][E,G,] [A,,A,]2 [A,,A,]/[A,,A,]/ | %23
 [E,A,]3 [E,B,]2 [E,B,] | ([A,,A,]3 [A,,A,]2) [A,,A,] | CED C[A,,B,][A,,A,] | %26
 DCB, [A,,A,]2 [A,,A,] | [A,,C]3 [A,,A,]2 [A,,E,] | [A,,E,]3- [A,,E,]4 |] %29
V:4
 x | x6 | x6 | x3 E,3 | E,6 | x6 | B,,3 x3 | C,3 x3 | D,3 x3 | x6 | x3 A,2 x | x6 | E,3 A, x2 | %13
 G,2 E, E,3 | x6 | E,3 C,C, x | x6 | x5 || x | x6 | A,3 x3 | x6 | x6 | x6 | x6 | A,,4 x2 | %26
 A,,3 x3 | x6 | x7 |] %29

